static/images/logos/trusted-by/tiktok.svg

<svg xmlns="http://www.w3.org/2000/svg" width="133" height="32" viewBox="0 0 133 32" fill="none">
    <path fill-rule="evenodd" clip-rule="evenodd" d="M50.7129 8.28277H33.709L33.818 13.1574H39.377V31.5486H44.827V13.2684H49.1869L50.7129 8.28277ZM96.1102 8.28277H78.6703V13.1574H84.2292V31.5486H89.7882V13.2684H94.5842L96.1102 8.28277ZM57.2529 15.7056H51.803V31.4377H57.2529V15.7056ZM64.8829 8.17188H59.4329V31.3269H64.8829V25.2334L66.5179 23.6824L71.6409 31.4377H77.6359L70.0059 20.3587L76.8728 13.6006H70.3329L64.8829 19.0293V8.17188ZM120.248 8.17188H114.798V31.3269H120.248V25.2334L121.883 23.6824L127.006 31.4377H133L125.371 20.3587L132.237 13.6006H125.698L120.248 19.0293V8.17188ZM57.2529 11.0525C57.2529 12.5822 56.0329 13.8223 54.528 13.8223C53.023 13.8223 51.803 12.5822 51.803 11.0525C51.803 9.52283 53.023 8.28277 54.528 8.28277C56.0329 8.28277 57.2529 9.52292 57.2529 11.0525ZM93.9121 22.024C93.9121 16.7061 98.1631 12.4961 103.286 12.4961C108.409 12.4961 112.66 16.8169 112.66 22.024C112.66 27.3419 108.518 31.5519 103.286 31.5519C98.054 31.5519 93.9121 27.2311 93.9121 22.024ZM98.7081 22.024C98.7081 24.5721 100.779 26.6771 103.286 26.6771C105.793 26.6771 107.864 24.5722 107.864 22.024C107.864 19.4759 105.793 17.3708 103.286 17.3708C100.779 17.3708 98.7081 19.4758 98.7081 22.024Z" fill="#ADADB0"/>
    <g clip-path="url(#clip0_1895_40407)">
        <path d="M28.6597 8.48049C26.8893 8.48049 25.2557 7.88442 23.9441 6.87874C22.4398 5.72578 21.3588 4.03483 20.9772 2.08572C20.8822 1.60404 20.8316 1.10697 20.8264 0.597656H15.7691V14.6437L15.7629 22.3373C15.7629 24.3941 14.4451 26.1382 12.6184 26.7514C12.0884 26.9295 11.5157 27.0138 10.9193 26.9806C10.1584 26.9382 9.44529 26.7046 8.82547 26.3278C7.50634 25.5261 6.61223 24.0713 6.5878 22.4072C6.5496 19.8064 8.6183 17.6863 11.175 17.6863C11.6799 17.6863 12.1644 17.7699 12.6184 17.922V14.0833V12.7033C12.1397 12.6313 11.6527 12.5938 11.1599 12.5938C8.36121 12.5938 5.74393 13.7762 3.87278 15.9065C2.45866 17.5163 1.61032 19.57 1.47954 21.7237C1.30815 24.5529 2.3265 27.2422 4.30194 29.2267C4.59206 29.5181 4.89698 29.7885 5.21566 30.0379C6.90923 31.3619 8.97966 32.08 11.1602 32.08C11.6527 32.08 12.14 32.0429 12.6187 31.9709C14.6558 31.6641 16.5352 30.7165 18.0185 29.226C19.8411 27.3951 20.8481 24.9643 20.8588 22.3772L20.8326 10.8882C21.7019 11.57 22.6528 12.1342 23.6729 12.5718C25.2598 13.2522 26.9423 13.5971 28.6738 13.5967V9.86431V8.47944C28.6752 8.48049 28.6607 8.48049 28.6597 8.48049Z" fill="#ADADB0"/>
    </g>
    <defs>
        <clipPath id="clip0_1895_40407">
            <rect width="31.483" height="32" fill="white"/>
        </clipPath>
    </defs>
</svg>

<svg xmlns="http://www.w3.org/2000/svg" width="133" height="32" fill="none"><path fill="#ADADB0" fill-rule="evenodd" d="M50.713 8.283H33.709l.109 4.874h5.559V31.55h5.45v-18.28h4.36l1.526-4.986Zm45.397 0H78.67v4.874h5.56V31.55h5.558v-18.28h4.796l1.526-4.986Zm-38.857 7.423h-5.45v15.732h5.45V15.706Zm7.63-7.534h-5.45v23.155h5.45v-6.094l1.635-1.55 5.123 7.755h5.995l-7.63-11.08 6.867-6.757h-6.54l-5.45 5.428V8.172Zm55.365 0h-5.45v23.155h5.45v-6.094l1.635-1.55 5.123 7.755H133l-7.629-11.08 6.866-6.757h-6.539l-5.45 5.428V8.172Zm-62.995 2.88c0 1.53-1.22 2.77-2.725 2.77-1.505 0-2.725-1.24-2.725-2.77s1.22-2.77 2.725-2.77c1.505 0 2.725 1.24 2.725 2.77Zm36.66 10.972c0-5.318 4.25-9.528 9.373-9.528 5.123 0 9.374 4.32 9.374 9.528 0 5.318-4.142 9.528-9.374 9.528s-9.374-4.32-9.374-9.528Zm4.795 0c0 2.548 2.071 4.653 4.578 4.653s4.578-2.105 4.578-4.653c0-2.548-2.071-4.653-4.578-4.653s-4.578 2.105-4.578 4.653Z" clip-rule="evenodd"/><g clip-path="url(#a)"><path fill="#ADADB0" d="M28.66 8.48a7.721 7.721 0 0 1-4.716-1.601 7.967 7.967 0 0 1-2.967-4.793 8.11 8.11 0 0 1-.15-1.488h-5.058v14.046l-.006 7.693c0 2.057-1.318 3.801-3.145 4.414a4.506 4.506 0 0 1-3.793-.424 4.667 4.667 0 0 1-2.237-3.92c-.038-2.6 2.03-4.72 4.587-4.72.505 0 .99.083 1.443.235V12.703a9.801 9.801 0 0 0-1.458-.11c-2.799 0-5.416 1.183-7.287 3.313a9.724 9.724 0 0 0-2.393 5.818 9.718 9.718 0 0 0 2.822 7.503c.29.291.595.561.914.81a9.602 9.602 0 0 0 5.944 2.043c.493 0 .98-.037 1.459-.11a9.609 9.609 0 0 0 5.4-2.744 9.701 9.701 0 0 0 2.84-6.849l-.026-11.489c.869.682 1.82 1.246 2.84 1.684 1.587.68 3.27 1.025 5 1.025V8.479c.002.001-.012.001-.013.001Z"/></g><defs><clipPath id="a"><path fill="#fff" d="M0 0h31.483v32H0z"/></clipPath></defs></svg>
